X:1
T:Jack at Greenwich
T:Jack at Greenwich
T:Dibdin
C:Dibdin
L:1/8
Q:1/4=120
M:4/4
K:A
V:1 treble 
V:1
"^Briskly" (cd) | ecBA dBAG | A2 c2 F2 z A | E2 A2 A2 c2 | c2 B z2 (cd) | ecBA dBAG | A2 c2 F2 A2 | %7
 E2 f2 e2 d2 | c2 A2 z2 (cB) | B2 G2 e2 B2 | c2 A2 e2 c>B | B2 cB AGFE | ^D2 [B,F]2 z2 B2 | %13
 B3 B G2 B2 | e2 e2 c2 c>B | B3 c B2 Bc/A/ | G2 E2 z2 e2 | e2 (cA){e} d2 BG | A2 c2 F3 F | %19
 E2 A2 A2 c2 | c2 B2 z2 e2 | e2 cA{e} d2 BG | A2 c2 F3 A | E2 f2 e2 d2 | c2 A2 z2 e2 | %25
 f2 d2 z2 (af) | e2 c2 z2 e2 | f2 d2 z2 (af) | e2 c2 z2 a2 | afed ecBA | G2 A2 D2 F>E | %31
 E2 f2 e2 d2 | c2 A2 z2 || %33

